X:207
T: Osterlied des 15. Jahrhunderts
N: A0561B
O: Europa, Mitteleuropa, Deutschland
N: Muenchner Gsgb. 1586. Verbreitetste Lesart.
R: Romanze, Ballade, Lied, religioeses Lied
M: 4/1
L: 1/2
K: C
G | G2G2G2_B2 | A2G2F2z
G | E2C2E2F2 | G2A2G2z
G | G2G2G2_B2 | A2G2F2z
G | E2C2E2F2 | G2A2G2z2
c2B2A2B2 | c2A2G2z
G | c2F2G2C2 | EAGFE2z
C | DEFGE2D2 | A,2B,2C3

